X: 1
T: Reel de Valcourt
M: C|
L: 1/8
F: http://www.ibiblio.org/fiddlers/REE_RH.htm 2015-7-17
S: \'Eric Favreau
N: From the playing of harmonica player Jean-Ludger Foucault.
K: D
|:\
D2[FA]D EDCE | DDFA {de}d2cd | edBc dBAG | FAFD EDCE |
D2[FA]D EDCE | DDFA {de}d2cd | edBc dBAG | FDEC D2 :|
|:\
d2dc {Bc}B2A2 | ceed cBAF | D2EF GBAG | FAFD EDCE |
D2[FA]D EDCE | DDFA {de}d2cd | edBc dBAG | FDEC D2 :|
P: variations
|:\
D2FD ~E3G | FDFA {de}d2cd | edBc dBAG | FAFD EDCE |
[F4A4] [E3A3]G | FDFA {de}d2cd | edBc dBAG | FDEC D2 :|
|: (3ABc |\
d2dc {Bc}B2A2 | ceed cBAF | D2EF GBAG | FAFD EDCE |
D2[FA]D EDCE | DDFA {de}d2cd | edBc dBAG | (3FGF (3EFE D2 :|
